src/svgs/ocaml.svg

<?xml version="1.0" encoding="UTF-8" standalone="no"?>
<svg
   viewBox="0 0 32 32"
   version="1.1"
   id="svg6"
   xmlns="http://www.w3.org/2000/svg"
   xmlns:svg="http://www.w3.org/2000/svg">
  <defs
     id="defs10" />
  <path
     id="path2"
     d="M 8.0996094 7.1992188 C 8.0996094 7.3992188 7.7992187 7.4003906 7.6992188 7.4003906 C 6.8992188 7.7003906 6.3996094 8.2996094 6.0996094 9.0996094 C 5.9996094 9.2996094 6 9.4992188 6 9.6992188 L 6 14.300781 C 6 14.600781 6.0007812 14.6 6.3007812 14.5 C 6.5007813 14.4 6.6007813 14.400781 6.8007812 14.300781 C 7.2007813 14.200781 7.3 13.799609 7.5 13.599609 C 7.7 13.299609 7.7996094 13.100391 8.0996094 12.900391 C 8.2996094 12.700391 8.5007813 12.700391 8.8007812 12.900391 C 9.0007812 13.000391 9.2 13.200781 9.5 13.300781 C 9.8 13.400781 10.2 13.500391 10.5 13.400391 C 10.8 13.400391 10.9 13.100391 11 12.900391 C 11.1 12.700391 11.200781 12.500391 11.300781 12.400391 C 11.500781 12.300391 11.600391 12.300781 11.900391 12.300781 C 12.500391 12.400781 12.900781 12.900391 13.300781 13.400391 C 13.400781 13.600391 13.499219 13.700781 13.699219 13.800781 C 13.899219 13.900781 14.100781 14.100781 14.300781 14.300781 C 14.800781 14.900781 15.5 15.300781 16 15.800781 C 16.3 16.100781 16.699219 16.399609 17.199219 16.599609 C 17.799219 16.799609 18.300781 16.899219 18.800781 16.199219 C 19.200781 15.699219 19.499609 15.1 19.599609 14.5 C 19.699609 14.2 19.899609 13.999219 20.099609 13.699219 L 20.199219 13.699219 C 20.699219 13.599219 21.199609 13.700781 21.599609 13.800781 C 21.799609 13.800781 21.899609 13.800391 22.099609 13.900391 C 22.499609 14.000391 22.900781 13.999219 23.300781 14.199219 C 23.700781 14.399219 23.799219 14.799219 23.699219 15.199219 C 23.599219 15.599219 23.500781 15.400391 23.300781 15.400391 L 23 15.400391 C 22.6 15.500391 22.200781 15.700391 21.800781 15.900391 C 21.600781 16.000391 21.400391 16.200391 21.400391 16.400391 C 21.300391 16.800391 21.100781 17.100781 20.800781 17.300781 C 20.700781 17.400781 20.599609 17.399609 20.599609 17.599609 C 20.399609 17.699609 20.399219 17.9 20.199219 18 C 19.499219 18.7 18.599609 18.999609 17.599609 19.099609 L 16 19.099609 C 15.8 19.099609 15.800781 19.200781 15.800781 19.300781 C 15.900781 19.700781 15.800391 20.1 15.900391 20.5 C 16.000391 20.7 16 20.899609 16 21.099609 C 16 21.499609 16.2 21.899219 16.5 22.199219 C 16.6 22.299219 16.599609 22.4 16.599609 22.5 C 16.599609 22.8 16.599219 23.2 16.699219 23.5 C 16.799219 23.9 16.899609 24.400781 17.099609 24.800781 C 17.199609 24.900781 17.300391 25.000391 17.400391 24.900391 C 17.600391 24.800391 17.8 24.799219 18 24.699219 C 18.5 24.499219 19.099219 24.5 19.699219 24.5 C 20.899219 24.5 21.999219 24.299609 23.199219 24.599609 C 23.599219 24.699609 23.900781 24.700781 24.300781 24.800781 C 24.900781 25.000781 25.4 25 26 25 C 26.2 25 26.400391 24.899609 26.400391 24.599609 C 25.900391 24.199609 26 24.100391 26 23.900391 L 26 10.400391 C 26 10.000391 26.000391 9.5992188 25.900391 9.1992188 C 25.800391 8.5992188 25.400391 8.0992187 24.900391 7.6992188 C 24.600391 7.4992187 24.300391 7.3007812 23.900391 7.3007812 C 23.800391 7.3007812 23.800781 7.2992188 23.800781 7.1992188 L 8.0996094 7.1992188 z M 7.5351562 18.425781 C 7.3271484 18.416992 7.125 18.550781 7 18.800781 C 7 18.900781 6.9003906 19.099219 6.9003906 19.199219 C 6.7003906 19.599219 6.4992188 19.899219 6.1992188 20.199219 C 6.0992188 20.399219 6 20.600391 6 20.900391 L 6 22.800781 C 6 23.000781 6.1007812 23.099609 6.3007812 23.099609 C 6.8007812 23.199609 7.1996094 23.4 7.5996094 23.5 C 8.1996094 23.7 8.8003906 24 9.4003906 24 C 9.8003906 24 9.8003906 23.999609 9.9003906 23.599609 C 9.9003906 23.499609 10 23.500391 10 23.400391 L 10 23.300781 C 10 23.200781 10.099609 23.199609 10.099609 23.099609 L 10.099609 23 C 10.199609 22.8 10.199219 22.6 10.199219 22.5 C 10.199219 22.3 10.200781 22.1 10.300781 22 L 10.300781 21.900391 C 10.500781 21.800391 10.599219 21.500781 10.699219 21.300781 L 10.699219 21.099609 L 10.800781 21 C 10.900781 20.5 11.1 19.999609 11.5 19.599609 L 11.400391 19.599609 C 10.700391 19.599609 10.100391 19.500781 9.4003906 19.300781 C 8.9003906 19.200781 8.3003906 18.999609 7.9003906 18.599609 C 7.7878906 18.487109 7.6599609 18.431055 7.5351562 18.425781 z M 13.212891 19.1875 C 13.050391 19.2 12.899219 19.3 12.699219 19.5 C 12.599219 19.6 12.6 19.700781 12.5 19.800781 C 12.2 20.300781 11.899609 20.800391 11.599609 21.400391 C 11.499609 21.600391 11.400391 21.7 11.400391 22 C 11.300391 22.1 11.299219 22.3 11.199219 22.5 C 10.899219 22.8 10.7 23.299219 10.5 23.699219 C 10.5 23.799219 10.4 23.800391 10.5 23.900391 L 10.699219 23.900391 C 11.099219 23.800391 11.500391 23.7 11.900391 23.5 C 12.500391 23.2 13.200781 23.200391 13.800781 23.400391 C 14.400781 23.600391 14.800781 23.900781 15.300781 24.300781 C 15.600781 24.500781 15.899219 24.599219 16.199219 24.699219 L 16.400391 24.699219 L 16.400391 24.599609 C 16.100391 23.999609 15.999219 23.5 15.699219 23 C 15.499219 22.8 15.400781 22.600781 15.300781 22.300781 C 15.300781 22.200781 15.299219 22 15.199219 22 C 15.199219 21.7 15.1 21.499219 15 21.199219 C 14.8 20.499219 14.400781 19.900391 13.800781 19.400391 C 13.550781 19.250391 13.375391 19.175 13.212891 19.1875 z " />
</svg>

<svg xmlns="http://www.w3.org/2000/svg" viewBox="0 0 32 32"><path d="M26 23.9V10.4c0-.4 0-.8-.1-1.2-.1-.6-.5-1.1-1-1.5-.3-.2-.6-.4-1-.4-.1 0-.1 0-.1-.1H8.1c0 .2-.3.2-.4.2-.8.3-1.3.9-1.6 1.7-.1.2-.1.4-.1.6v4.6c0 .3 0 .3.3.2.2-.1.3-.1.5-.2.4-.1.5-.5.7-.7.2-.3.3-.5.6-.7.2-.2.4-.2.7 0 .2.1.4.3.7.4.3.1.7.2 1 .1.3 0 .4-.3.5-.5.1-.2.2-.4.3-.5.2-.1.3-.1.6-.1.6.1 1 .6 1.4 1.1.1.2.2.3.4.4.2.1.4.3.6.5.5.6 1.2 1 1.7 1.5.3.3.7.6 1.2.8.6.2 1.1.3 1.6-.4.4-.5.7-1.1.8-1.7.1-.3.3-.5.5-.8h.1c.5-.1 1 0 1.4.1.2 0 .3 0 .5.1.4.1.8.1 1.2.3.4.2.5.6.4 1-.1.4-.2.2-.4.2H23c-.4.1-.8.3-1.2.5-.2.1-.4.3-.4.5-.1.4-.3.7-.6.9-.1.1-.2.1-.2.3-.2.1-.2.3-.4.4-.7.7-1.6 1-2.6 1.1H16c-.2 0-.2.1-.2.2.1.4 0 .8.1 1.2.1.2.1.4.1.6 0 .4.2.8.5 1.1.1.1.1.2.1.3 0 .3 0 .7.1 1 .1.4.2.9.4 1.3.1.1.2.2.3.1.2-.1.4-.1.6-.2.5-.2 1.1-.2 1.7-.2 1.2 0 2.3-.2 3.5.1.4.1.7.1 1.1.2.6.2 1.1.2 1.7.2.2 0 .4-.1.4-.4-.5-.4-.4-.5-.4-.7z"/><path d="M10.7 21.1l.1-.1c.1-.5.3-1 .7-1.4h-.1c-.7 0-1.3-.1-2-.3-.5-.1-1.1-.3-1.5-.7-.3-.3-.7-.2-.9.2 0 .1-.1.3-.1.4-.2.4-.4.7-.7 1-.1.2-.2.4-.2.7v1.9c0 .2.1.3.3.3.5.1.9.3 1.3.4.6.2 1.2.5 1.8.5.4 0 .4 0 .5-.4 0-.1.1-.1.1-.2h-.1.1v-.2.1c0-.1.1-.1.1-.2V23c.1-.2.1-.4.1-.5 0-.2 0-.4.1-.5v-.1c.2-.1.3-.4.4-.6v-.2zm5 1.9c-.2-.2-.3-.4-.4-.7 0-.1 0-.3-.1-.3 0-.3-.1-.5-.2-.8-.2-.7-.6-1.3-1.2-1.8-.5-.3-.7-.3-1.1.1-.1.1-.1.2-.2.3-.3.5-.6 1-.9 1.6-.1.2-.2.3-.2.6-.1.1-.1.3-.2.5-.3.3-.5.8-.7 1.2 0 .1-.1.1 0 .2h.2c.4-.1.8-.2 1.2-.4.6-.3 1.3-.3 1.9-.1.6.2 1 .5 1.5.9.3.2.6.3.9.4h.2v-.1c-.3-.6-.4-1.1-.7-1.6z"/></svg>
